X:1
T:Violin Caprice No. 10 in G Minor
T:Violin Caprice No. 10 in G Minor
T:Op. 1, No. 10
T:Niccolò Paganini
C:Niccolò Paganini
L:1/8
Q:1/4=100
M:6/8
K:Bb
V:1 treble nm="Violin" snm="Vln."
V:1
"^Vivace"!f!"_martellato"{/[G,DBg]a} b(.a/.g/.f/.e/ .d/.c/.B/.A/.G/.^F/) | %1
 .G((.G,/.A,/.B,/.C/) (TD/^C/D/)(.=C/.B,/.A,/)) |{/[G,DBg]a} b(.a/.g/.f/.e/ .d/.c/.B/.A/.G/.^F/) | %3
 .G((.G,/.A,/.B,/.C/) (TD/^C/D/)(.=C/.B,/.A,/)) | %4
{/G,} ((TG/^F/G/)(.=F/.E/.D/){/C} (Tc/=B/c/)(._B/.A/.G/)) | %5
{/F} ((Tf/=e/f/)(._e/.d/.c/){/B} (Tb/a/b/)(.a/._a/.g/)) | ^f/^F/=f/=F/=e/=E/ _e/_E/d/D/^c/^C/ | %7
 ((TD/^C/D/)(.^F/.A/.d/)) (.D/.E/.D/.=C/.B,/.A,/) | %8
{/[G,DBg]a} b(.a/.g/.f/.e/ .d/.c/.B/.A/.G/.^F/) | G((.G,/.A,/.B,/.C/) (TD/^C/D/)(.=C/.B,/.A,/)) | %10
{/[G,DBg]a} b(.a/.g/.f/.e/ .d/.c/.B/.A/.G/.^F/) | G((.G,/.A,/.B,/.C/) (TD/^C/D/)(.=C/.B,/.A,/)) | %12
{/G,} ((TG/^F/G/)(.=F/.E/.D/){/C} (Tc/=B/c/)(._B/.A/.G/)) | %13
{/F} ((Tf/=e/f/)(._e/.d/.c/){/B} (Tb/a/b/)(.a/._a/.g/)) | ^f/^F/=f/=F/=e/=E/ _e/_E/d/D/^c/^C/ | %15
 =c/C/=B/=B,/_B/_B,/ A/A,/ (.e'/.c'/.a/.E/) | (TD E/)(.c'/.a/.E/) (TD E/)(.c'/.a/.E/) | %17
 (TD F/)(._a/.g/.E/) (T=E G/)(.b/.=a/.F/) | ((T^F A/)(.c'/.b/.G/)) ((TA c/)(.e'/.d'/.B/)) | %19
 =E/b/G/_d'/B/=e'/ _d/g'/=e/b'/g/_d''/ | (TFf/)(.D/.E/.C/) (TB,/A,/B,/)!p!(.b/.a/._a/) | %21
 ((Tg/^f/g/)(.e/.d/._d/) (Tc/=B/c/)(._a/.g/._g/)) | %22
 (Tf/=e/f/)(.d/.^c/.=c/) (TB/A/B/)(.A/._A/.^F/) | G/(.b/.g/.=e/._d/.B/) F/f/_E/_e/C/c/ | %24
!f! (TB,/A,/B,/)(._g/.f/.B,/) (TB,/A,/B,/)(._g'/.f'/.B,/) | %25
 (TB,/A,/B,/)(._g/.f/.B,/) (TB,/A,/B,/)(._G/.F/.B,/) | (TB,/A,/B,) z z2 z :| %27
!f! (T_a/g/a/)(.f'/.d'/.a/ .f/.d/.B/._A/.F/.D/) | (Tg/^f/g/)(.g'/.e'/.b/ .g/.e/.B/.G/.E/.B,/) | %29
 (Tf/=e/f/)(.d'/.=b/.f/ .d/.=B/.G/.F/.D/.=B,/) | (T_e/d/e/)(.e'/.c'/.g/ .e/.c/.G/.E/.C/.G,/) | %31
!p! (T_A,/G,/A,/)(.e/.c/._a/) (TB,/=A,/B,/)(._d/.B/._d'/) | %32
 G,/(.b/.g/.e/._d/.B/) (G/_A/)(.c'/.B/.A/.G/) | (TF/=E/F/)(.c'/._a/.f'/) (TG/^F/G/)(._d'/.b/.g'/) | %34
 =E/(.g/.=e/._d/.B/.G/) (E/F/)(._a/._G/.F/._E/) | %35
!f! [_D_Aff'](.e'/._d'/.c'/.b/) (._a/._G/.E/._D/.C/.B,/) | %36
 [=A,_Gec'](.=a/._g/.f/.e/) (._d/.F/.E/._D/.C/.B,/) | %37
 [_G_db](._a/._g/.f/.e/) [F=d_c'](.b/.a/.g/.f/) | %38
 [EB_g](.f/.e/._d/._c/) [^C^A^g](.^f/.=e/.^d/.^c/) || %39
[K:B] [B,Fdd'](.c'/.b/.a/.g/ .f/.e/.d/.c/.B/.A/) | [G,DBb](.a/.g/.f/.e/ .d/.c/.B/.=A/.G/.F/) || %41
[K:E]!p! (TE/D/E/)(.b/.g/.e'/) (TF/^E/F/)(.a/.f/.d'/) | D/(.a/.f/.d/.A/.F/) (D/E/)(.g/.F/.E/.D/) | %43
 (TC/^B,/C/)(.g/.e/.c'/) (TD/^^C/D/)(.a/.f/.d'/) | %44
 ^B,/(.d/.^B/.A/.F/.D/) (B,/C/)(.e/.=D/.C/.=B,/) || %45
[K:A]!f! [A,Ecc'](.b/.a/.g/.f/ .e/.d/.B/.A/.G/.F/) | [^Edd'](.c'/.b/.a/.g/ .f/.c/.B/.A/.G/.F/) || %47
[K:D] [DAf](.e/.d/.c/.B/) [C^Ag](.f/.e/.d/.c/) | [B,Fd](.=c/.B/.A/.G/) [A,Fe](.d/.c/.B/.A/) || %49
[K:G]!p! (TG/F/G/)(.d/.B/.G/) (T=F/E/F/)(.d/.B/.F/) | %50
"^♮" (TE/D/E/)(.c/.G/.E/)"^♮" (T_E/D/E/)(.^c/.G/.E/) | %51
"^♭" (TD/^C/D/)(.d/.A/.D/) (TC/^B,/C/)(.e/.G/.C/) | (.=C/.^f/._e/.C/.A,/.a/ .f/._E/.C/.c'/.a/.F/) | %53
 ._E/"_cresc."(._e'/.c'/.a/.=f/._e/ .c/.A/.F/.E/.C/.A,/) || %54
[K:Bb]!f!{/[G,DBg]a} b(.a/.g/.f/.e/ .d/.c/.B/.A/.G/.^F/) | %55
 G(.G,/.A,/.B,/.C/) (TD/^C/D/)(.=C/.B,/.A,/) |{/[G,DBg]a} b(.a/.g/.f/.e/ .d/.c/.B/.A/.G/.^F/) | %57
 G(.G,/.A,/.B,/.C/) (TD/^C/D/)(.=C/.B,/.A,/) | %58
{/[B,D]} (TG/^F/G/)(.=F/.E/.D/){/C} (Tc/=B/c/)(._B/.A/.G/) | %59
{/F} (Tf/=e/f/)(._e/.d/.c/){/B} (Tb/a/b/)(.a/._a/.g/) | ^f/^F/=f/=F/=e/=E/ _e/_E/d/D/^c/^C/ | %61
 =c/C/=B/=B,/_B/_B,/ A/A,/ (.e'/.c'/.a/.^f/) | (Tga/)(.e'/.d'/.^f/) (Tga/)(.e'/.d'/.=f/) | %63
 (Tef/)(.c'/.b/.d/) (Tcd/)(.a/.g/.B/) | (T_Ac/)(.e/._a/.c'/ .e'/._a'/.c''/.e''/.c''/.a'/) | %65
 (TGB/)(.^c/.e/.g/ .b/.^c'/.=e'/.g'/.b'/.c'/) | D/(.d'/.^c'/.=c'/.=b/._b/ .a/.g/.^f/.d/.c/.A/) | %67
!p! (TG/^F/G/)(.F/.=F/.=E/) (T_E/D/E/)(.D/.C/.B,/) | %68
 (TA,/^G,/A,/)(.B,/.C/.^C/) (TD/C/D/)(.C/.=C/.A,/) | %69
"_cresc."{/[B,D]} (Tg/^f/g/)(.f/.=f/.=e/) (T_e/d/e/)(.d/.c/.B/) | %70
 (TA/^G/A/)(.B/.c/.^c/) (Td/c/d/)(.c/.=c/.A/) | %71
!f! (T[G,DBg]/^f/g/)(.[Ddb]/.[Dca]/.[DAf]/) (TG/^F/G/)(.D/.C/.A,/) | %72
 (T[G,DBg]/^f/g/)(.[Ddb]/.[Dca]/.[DAf]/) (TG/^F/G/)(.D/.C/.A,/) | %73
!f! (T[G,DBg]/^f/g/)(.[Ddb]/.[Dca]/.[DAf]/)!f! (T[G,DBg]/f/g/)(.[Ddb]/.[Dca]/.[DAf]/) | %74
 [G,DBg]3 z2 z |] %75

